svg/u1f515.svg

<svg viewBox="0 0 128 128" xmlns="http://www.w3.org/2000/svg">
  <g>
    <path d="M64,4C30.86,4,4,30.86,4,64s26.86,60,60,60s60-26.86,60-60S97.14,4,64,4z M114,64 c0.04,11.53-3.96,22.71-11.3,31.6L32.4,25.3C41.29,17.96,52.47,13.96,64,14C91.61,14,114,36.39,114,64z M14,64 c-0.04-11.53,3.96-22.71,11.3-31.6l70.3,70.3c-8.89,7.34-20.07,11.34-31.6,11.3C36.39,114,14,91.61,14,64z" fill="#CC3333"/>
    <circle cx="60.1" cy="63.1" r="56.1" fill="#F44336"/>
    <path d="M95.6,102.7c-8.89,7.34-20.07,11.34-31.6,11.3c-27.61,0-50-22.39-50-50 c-0.04-11.53,3.96-22.71,11.3-31.6l7.1-7.1C41.29,17.96,52.47,13.96,64,14c27.61,0,50,22.39,50,50c0.04,11.53-3.96,22.71-11.3,31.6 " fill="#FFFFFF"/>
    <path d="M95.6,102.7c-8.89,7.34-20.07,11.34-31.6,11.3c-27.61,0-50-22.39-50-50 c-0.04-11.53,3.96-22.71,11.3-31.6l7.1-7.1C41.29,17.96,52.47,13.96,64,14c27.61,0,50,22.39,50,50c0.04,11.53-3.96,22.71-11.3,31.6 " fill="#231F20"/>
    <path d="M96.4,103.2c-20.49,16.74-50.66,13.7-67.4-6.79C14.59,78.78,14.59,53.44,29,35.8l6.8-6.8 c8.53-7.03,19.25-10.85,30.3-10.8c26.45,0,47.9,21.44,47.9,47.9c0,11.04-3.82,21.75-10.8,30.3" fill="#414042"/>
    <path d="M58.7,34.4c0-4.2,3.4-7.6,7.6-7.6c4.2,0,7.6,3.4,7.6,7.6S70.5,42,66.3,42S58.7,38.6,58.7,34.4 L58.7,34.4z M63.1,34.4c0,1.77,1.43,3.2,3.2,3.2s3.2-1.43,3.2-3.2s-1.43-3.2-3.2-3.2c-1.75-0.02-3.18,1.37-3.2,3.12 C63.1,34.35,63.1,34.37,63.1,34.4z" fill="#E2A610"/>
    <path d="M72.8,30.5c0.12,0.89-0.37,1.75-1.2,2.1c-0.78,0.48-1.75,0.56-2.6,0.2c0.28,0.48,0.42,1.04,0.4,1.6 c0,1.77-1.43,3.2-3.2,3.2c-1.77,0-3.2-1.43-3.2-3.2c-0.01-0.48,0.09-0.96,0.3-1.4c-1.43,0.72-3.11,0.8-4.6,0.2 c-0.08,0.39-0.12,0.8-0.1,1.2c0,4.2,3.4,7.6,7.6,7.6s7.6-3.4,7.6-7.6C73.78,33.04,73.43,31.7,72.8,30.5z" fill="#9E740B"/>
    <path d="M33.6,80.8c4-3.9,6.4-5.2,7.5-10.9s0.2-17.6,4.6-25.4c4.1-7.1,11.5-10.1,18.8-10.1h1 c7.3,0,14.7,3,18.8,10.1c4.4,7.8,3.6,19.7,4.6,25.4s3.5,7,7.5,10.9c1.7,1.7,3.8,4.4,3.8,6.1s-0.9,2.4-3,3.2 C91.3,92.6,83.4,95,65,95s-26.3-2.4-32.3-4.9c-2.1-0.9-3-1.5-3-3.2S31.9,82.4,33.6,80.8z" fill="#FFCA28"/>
    <path d="M94.2,87c0-2.6-13.1-4.7-29.2-4.7S35.8,84.4,35.8,87s13.1,5.7,29.2,5.7S94.2,89.6,94.2,87z" fill="#4E342E"/>
    <path d="M82.5,49.6c0.21,0.82,0.38,1.66,0.5,2.5c0.7,4.1,0.6,8.4,0.9,12.6c0.5,5.6,1.4,8.6,3.7,11.2 c0.17,0.22,0.14,0.53-0.08,0.7c-0.12,0.09-0.27,0.13-0.42,0.1c-3-0.5-5.5-0.9-8.2-2.8c-4.1-2.7-5.2-7.9-5.2-12.5 c0-6.9,0.1-13.5-0.5-16c-0.43-2.51-1.31-4.91-2.6-7.1c-1.8-2.6,5.1,1,6.1,1.8C79.9,42.4,81.6,46,82.5,49.6z" fill="#E2A610"/>
    <path d="M45.6,58.8c-0.1-4.5,0-9.1,1.7-13.1c1.11-2.47,2.91-4.55,5.2-6c1.8-1.1,5.5-2.3,6.8,0.2 c0.27,0.49,0.41,1.04,0.4,1.6c0,1.9-1,3.7-1.9,5.4c-2.9,5-4.1,10.4-5.6,15.9c-0.53,2.32-1.48,4.52-2.8,6.5c-0.9,1.3-6.2,6-5,1.8 C45.34,67.07,45.75,62.94,45.6,58.8z" fill="#FFF59D"/>
    <path d="M70.3,86.1c0-1-0.6-1.6-1.8-2c-2.55-0.87-5.33-0.76-7.8,0.3c-2,1.1-0.6,7,4.2,7S70.3,86.8,70.3,86.1 z" fill="#E2A610"/>
    <path d="M46.9,77.2c-5.2,0.9-8.9,2.9-10.5,4.4c-1.3,1.3-1.3,2.2,1,1.2c3.83-1.43,7.83-2.37,11.9-2.8 c8.2-0.8,13.2-0.8,14.1-0.8c2,0,2.1-1.5-1.8-2C56.73,76.5,51.77,76.5,46.9,77.2z" fill="#FFF59D"/>
    <path d="M62.9,90.2c0.65,0.51,1.52,0.66,2.3,0.4c0.79-0.27,1.2-1.14,0.93-1.92 c-0.01-0.03-0.02-0.05-0.03-0.08c-0.15-0.3-0.4-0.55-0.7-0.7c-0.71-0.53-1.48-0.97-2.3-1.3c-0.32-0.11-0.66-0.18-1-0.2 c-0.34,0-0.65,0.19-0.8,0.5C60.8,88.1,61.9,89.5,62.9,90.2z" fill="#FFF59D"/>
    <polyline points="23.4,35.6 95,102.1 97,100.2 30.6,33.4 " opacity="0.8" fill="#231F20" enable-background="new "/>
    <path d="M103.9,96.8L25.3,18.9L18.2,26l78.6,77.9" fill="#F44336"/>
    <path d="M45,10.9c1.7-0.4,4.2-1.6,5.9-1.1c1.09,0.3,1.75,1.4,1.5,2.5c-0.37,0.81-1.12,1.37-2,1.5 c-3.9,0.97-7.68,2.35-11.3,4.1c-7.18,3.78-13.38,9.19-18.1,15.8c-1.9,2.7-3.4,5.5-5.8,7.8c-0.21,0.23-0.49,0.37-0.8,0.4 c-0.17,0.03-0.35-0.01-0.5-0.1c-1.2-0.5-1.4-1.1-1.2-2.3c0.18-1.01,0.52-1.99,1-2.9c1.01-1.76,2.11-3.46,3.3-5.1 c1.89-2.91,4.11-5.59,6.6-8C30.4,17.2,39.2,12.4,45,10.9z" fill="#FF8A80"/>
    <polygon points="32.4,25.3 30.4,27.3 101.5,98.4 103.3,96.2 " fill="#CC3333"/>
  </g>
</svg>

<svg viewBox="0 0 128 128" xmlns="http://www.w3.org/2000/svg">
  <defs/>
  <path d="M64,4 C30.86,4 4,30.86 4,64 C4,97.14 30.86,124 64,124 C97.14,124 124,97.14 124,64 C124,30.86 97.14,4 64,4 Z M114,64 C114.04,75.53 110.04,86.71 102.7,95.6 L32.4,25.3 C41.29,17.96 52.47,13.96 64,14 C91.61,14 114,36.39 114,64 Z M14,64 C13.96,52.47 17.96,41.29 25.3,32.4 L95.6,102.7 C86.71,110.04 75.53,114.04 64,114 C36.39,114 14,91.61 14,64 Z" fill="#CC3333"/>
  <path d="M116.2,63.1 A56.1 56.1 0 1 1 4,63.1 A56.1 56.1 0 1 1 116.2,63.1 Z" fill="#F44336"/>
  <path d="M95.6,102.7 C86.71,110.04 75.53,114.04 64,114 C36.39,114 14,91.61 14,64 C13.96,52.47 17.96,41.29 25.3,32.4 L32.4,25.3 C41.29,17.96 52.47,13.96 64,14 C91.61,14 114,36.39 114,64 C114.04,75.53 110.04,86.71 102.7,95.6" fill="#FFFFFF"/>
  <path d="M95.6,102.7 C86.71,110.04 75.53,114.04 64,114 C36.39,114 14,91.61 14,64 C13.96,52.47 17.96,41.29 25.3,32.4 L32.4,25.3 C41.29,17.96 52.47,13.96 64,14 C91.61,14 114,36.39 114,64 C114.04,75.53 110.04,86.71 102.7,95.6" fill="#231F20"/>
  <path d="M96.4,103.2 C75.91,119.94 45.74,116.9 29,96.41 C14.59,78.78 14.59,53.44 29,35.8 L35.8,29 C44.33,21.97 55.05,18.15 66.1,18.2 C92.55,18.2 114,39.64 114,66.1 C114,77.14 110.18,87.85 103.2,96.4" fill="#414042"/>
  <path d="M58.7,34.4 C58.7,30.2 62.1,26.8 66.3,26.8 C70.5,26.8 73.9,30.2 73.9,34.4 C73.9,38.6 70.5,42 66.3,42 C62.1,42 58.7,38.6 58.7,34.4 L58.7,34.4 Z M63.1,34.4 C63.1,36.17 64.53,37.6 66.3,37.6 C68.07,37.6 69.5,36.17 69.5,34.4 C69.5,32.63 68.07,31.2 66.3,31.2 C64.55,31.18 63.12,32.57 63.1,34.32 C63.1,34.35 63.1,34.37 63.1,34.4 Z" fill="#E2A610"/>
  <path d="M72.8,30.5 C72.92,31.39 72.43,32.25 71.6,32.6 C70.82,33.08 69.85,33.16 69,32.8 C69.28,33.28 69.42,33.84 69.4,34.4 C69.4,36.17 67.97,37.6 66.2,37.6 C64.43,37.6 63,36.17 63,34.4 C62.99,33.92 63.09,33.44 63.3,33 C61.87,33.72 60.19,33.8 58.7,33.2 C58.62,33.59 58.58,34 58.6,34.4 C58.6,38.6 62,42 66.2,42 C70.4,42 73.8,38.6 73.8,34.4 C73.78,33.04 73.43,31.7 72.8,30.5 Z" fill="#9E740B"/>
  <path d="M33.6,80.8 C37.6,76.9 40,75.6 41.1,69.9 C42.2,64.2 41.3,52.3 45.7,44.5 C49.8,37.4 57.2,34.4 64.5,34.4 L65.5,34.4 C72.8,34.4 80.2,37.4 84.3,44.5 C88.7,52.3 87.9,64.2 88.9,69.9 C89.9,75.6 92.4,76.9 96.4,80.8 C98.1,82.5 100.2,85.2 100.2,86.9 C100.2,88.6 99.3,89.3 97.2,90.1 C91.3,92.6 83.4,95 65,95 C46.6,95 38.7,92.6 32.7,90.1 C30.6,89.2 29.7,88.6 29.7,86.9 C29.7,85.2 31.9,82.4 33.6,80.8 Z" fill="#FFCA28"/>
  <path d="M94.2,87 C94.2,84.4 81.1,82.3 65,82.3 C48.9,82.3 35.8,84.4 35.8,87 C35.8,89.6 48.9,92.7 65,92.7 C81.1,92.7 94.2,89.6 94.2,87 Z" fill="#4E342E"/>
  <path d="M82.5,49.6 C82.71,50.42 82.88,51.26 83,52.1 C83.7,56.2 83.6,60.5 83.9,64.7 C84.4,70.3 85.3,73.3 87.6,75.9 C87.77,76.12 87.74,76.43 87.52,76.6 C87.4,76.69 87.25,76.73 87.1,76.7 C84.1,76.2 81.6,75.8 78.9,73.9 C74.8,71.2 73.7,66 73.7,61.4 C73.7,54.5 73.8,47.9 73.2,45.4 C72.77,42.89 71.89,40.49 70.6,38.3 C68.8,35.7 75.7,39.3 76.7,40.1 C79.9,42.4 81.6,46 82.5,49.6 Z" fill="#E2A610"/>
  <path d="M45.6,58.8 C45.5,54.3 45.6,49.7 47.3,45.7 C48.41,43.23 50.21,41.15 52.5,39.7 C54.3,38.6 58,37.4 59.3,39.9 C59.57,40.39 59.71,40.94 59.7,41.5 C59.7,43.4 58.7,45.2 57.8,46.9 C54.9,51.9 53.7,57.3 52.2,62.8 C51.67,65.12 50.72,67.32 49.4,69.3 C48.5,70.6 43.2,75.3 44.4,71.1 C45.34,67.07 45.75,62.94 45.6,58.8 Z" fill="#FFF59D"/>
  <path d="M70.3,86.1 C70.3,85.1 69.7,84.5 68.5,84.1 C65.95,83.23 63.17,83.34 60.7,84.4 C58.7,85.5 60.1,91.4 64.9,91.4 C69.7,91.4 70.3,86.8 70.3,86.1 Z" fill="#E2A610"/>
  <path d="M46.9,77.2 C41.7,78.1 38,80.1 36.4,81.6 C35.1,82.9 35.1,83.8 37.4,82.8 C41.23,81.37 45.23,80.43 49.3,80 C57.5,79.2 62.5,79.2 63.4,79.2 C65.4,79.2 65.5,77.7 61.6,77.2 C56.73,76.5 51.77,76.5 46.9,77.2 Z" fill="#FFF59D"/>
  <path d="M62.9,90.2 C63.55,90.71 64.42,90.86 65.2,90.6 C65.99,90.33 66.4,89.46 66.13,88.68 C66.12,88.65 66.11,88.63 66.1,88.6 C65.95,88.3 65.7,88.05 65.4,87.9 C64.69,87.37 63.92,86.93 63.1,86.6 C62.78,86.49 62.44,86.42 62.1,86.4 C61.76,86.4 61.45,86.59 61.3,86.9 C60.8,88.1 61.9,89.5 62.9,90.2 Z" fill="#FFF59D"/>
  <path d="M23.4,35.6 L95,102.1 L97,100.2 L30.6,33.4" fill="#231F20" opacity="0.8"/>
  <path d="M103.9,96.8 L25.3,18.9 L18.2,26 L96.8,103.9" fill="#F44336"/>
  <path d="M45,10.9 C46.7,10.5 49.2,9.3 50.9,9.8 C51.99,10.1 52.65,11.2 52.4,12.3 C52.03,13.11 51.28,13.67 50.4,13.8 C46.5,14.77 42.72,16.15 39.1,17.9 C31.92,21.68 25.72,27.09 21,33.7 C19.1,36.4 17.6,39.2 15.2,41.5 C14.99,41.73 14.71,41.87 14.4,41.9 C14.23,41.93 14.05,41.89 13.9,41.8 C12.7,41.3 12.5,40.7 12.7,39.5 C12.88,38.49 13.22,37.51 13.7,36.6 C14.71,34.84 15.81,33.14 17,31.5 C18.89,28.59 21.11,25.91 23.6,23.5 C30.4,17.2 39.2,12.4 45,10.9 Z" fill="#FF8A80"/>
  <path d="M32.4,25.3 L30.4,27.3 L101.5,98.4 L103.3,96.2 Z" fill="#CC3333"/>
</svg>
